X: 1
T:The Maid at the Spinning Wheel
C:Trad
R:Jig
M:6/8
K:G
Z:From Eileen Iver's 'Wild Blue'
L:1/8
G2G B3|BcA B3|G2G cAG|F2G AFD|G2G B3|BcA B2g|fed cAF|1 AGF GED:|2 AGF GA
c|
BAG AFD|DDD AFD|DDD AFD|EFG ABc|BAG AFD|
DDD AFD|ded cAF|1 AGF GAc:|2 AGF G2D|
GBd gba|gdB ecA|dBG cAG|F2G AFD|GBd gba|
gdB ecA|fed cAF|1 AGF G2D:|2 AGF GAc|
BAG Afd|Bgd Afd|Bgd AFD|EFG ABc|BAG AFD|
DDD AFD|ded cAF|1 AGF GAc:|2 AGF G3 ||
